dist/static/img/yii/01.svg

<svg width="48" height="48" viewBox="0 0 48 48" fill="none" xmlns="http://www.w3.org/2000/svg">
<g clip-path="url(#clip0_1077_7776)">
<path d="M16.5541 16.2106C16.242 15.8985 15.736 15.8985 15.4239 16.2106L11.4274 20.2071C11.1153 20.5193 11.1153 21.0253 11.4274 21.3373L15.4239 25.3339C15.7375 25.6368 16.2361 25.6324 16.5444 25.3241C16.8528 25.0159 16.8571 24.5173 16.5541 24.2037L13.1227 20.7722L16.5541 17.3408C16.8662 17.0287 16.8662 16.5228 16.5541 16.2106V16.2106Z" fill="white"/>
<path d="M25.0152 25.3339C25.3274 25.646 25.8334 25.646 26.1454 25.3339L30.1419 21.3374C30.454 21.0252 30.454 20.5193 30.1419 20.2072L26.1454 16.2107C25.8318 15.9078 25.3333 15.9122 25.0249 16.2204C24.7166 16.5287 24.7123 17.0273 25.0152 17.3409L28.4467 20.7723L25.0152 24.2037C24.7033 24.5158 24.7033 25.0219 25.0152 25.3339V25.3339Z" fill="white"/>
<path d="M18.8883 25.5111C19.0851 25.5899 19.3052 25.5872 19.5001 25.5037C19.6949 25.4202 19.8487 25.2627 19.9274 25.0658L23.1246 17.0728C23.2309 16.8075 23.1875 16.5057 23.0108 16.281C22.8342 16.0564 22.5511 15.9431 22.2682 15.9837C21.9854 16.0244 21.7457 16.2129 21.6394 16.4782L18.4422 24.4712C18.3632 24.6683 18.3658 24.8886 18.4495 25.0836C18.5333 25.2787 18.6912 25.4325 18.8883 25.5111V25.5111Z" fill="white"/>
<path d="M20.7842 41.5541C25.4685 41.5575 30.0152 39.9701 33.6794 37.0516L35.991 39.364C36.0354 40.1373 36.3615 40.8675 36.9078 41.4166L42.5029 47.0118C43.3057 47.8429 44.4944 48.1762 45.6123 47.8836C46.7302 47.5909 47.6032 46.718 47.8957 45.6002C48.1883 44.4824 47.855 43.2936 47.0239 42.4908L41.4287 36.8956C40.884 36.3666 40.1663 36.0527 39.4081 36.0116L37.0637 33.6673C43.0701 26.0717 43.0309 15.3333 36.969 7.78188C30.9071 0.230514 20.4313 -2.12986 11.7165 2.09207C3.00185 6.31401 -1.639 15.9979 0.529578 25.4355C2.69816 34.8731 11.1007 41.5597 20.7842 41.5541V41.5541ZM45.8937 43.6212C46.5177 44.2454 46.5177 45.2573 45.8937 45.8817C45.2613 46.4858 44.2656 46.4858 43.6332 45.8817L38.0381 40.2865C37.6225 39.8851 37.4558 39.2908 37.6021 38.7319C37.7484 38.173 38.1849 37.7364 38.7438 37.5902C39.3027 37.4439 39.8972 37.6105 40.2985 38.0261L45.8937 43.6212ZM37.5553 36.4194C37.3188 36.5493 37.101 36.7107 36.9078 36.899C36.7213 37.0908 36.5601 37.3057 36.4282 37.5385L34.9007 36.0102C35.2892 35.6505 35.6638 35.2759 36.0245 34.8864L37.5553 36.4194ZM20.7842 1.58869C31.3789 1.58869 39.9676 10.1774 39.9676 20.7721C39.9676 31.3669 31.3789 39.9556 20.7842 39.9556C10.1894 39.9556 1.60073 31.3668 1.60073 20.7721C1.61311 10.1825 10.1946 1.60107 20.7842 1.58869V1.58869Z" fill="white"/>
<path d="M20.784 38.3571C30.4959 38.3571 38.3689 30.4842 38.3689 20.7723C38.3689 11.0605 30.4958 3.1875 20.784 3.1875C11.0723 3.1875 3.19922 11.0605 3.19922 20.7723C3.21027 30.4795 11.0768 38.3461 20.784 38.3571ZM20.784 4.78613C29.6129 4.78613 36.7702 11.9433 36.7702 20.7723C36.7702 29.6013 29.613 36.7585 20.784 36.7585C11.9551 36.7585 4.79785 29.6012 4.79785 20.7723C4.80804 11.9476 11.9593 4.79622 20.784 4.78613V4.78613Z" fill="white"/>
<path d="M9.59419 14.3778H15.9887C16.4302 14.3778 16.788 14.02 16.788 13.5786C16.788 13.1371 16.4301 12.7793 15.9887 12.7793H9.59419C9.1527 12.7793 8.79492 13.1372 8.79492 13.5786C8.79483 14.02 9.1527 14.3778 9.59419 14.3778Z" fill="white"/>
<path d="M11.9926 11.1806H29.5774C30.0189 11.1806 30.3767 10.8227 30.3767 10.3813C30.3767 9.93981 30.0188 9.58203 29.5774 9.58203H11.9926C11.5511 9.58203 11.1934 9.93991 11.1934 10.3813C11.1934 10.8227 11.5512 11.1806 11.9926 11.1806V11.1806Z" fill="white"/>
<path d="M27.179 12.7793H19.186C18.7445 12.7793 18.3867 13.1372 18.3867 13.5786C18.3867 14.0201 18.7446 14.3778 19.186 14.3778H27.179C27.6205 14.3778 27.9783 14.02 27.9783 13.5786C27.9783 13.1372 27.6204 12.7793 27.179 12.7793Z" fill="white"/>
<path d="M17.5864 7.9833H23.9809C24.4224 7.9833 24.7802 7.62542 24.7802 7.18403C24.7802 6.74264 24.4223 6.38477 23.9809 6.38477H17.5864C17.1449 6.38477 16.7871 6.74264 16.7871 7.18403C16.7871 7.62542 17.145 7.9833 17.5864 7.9833Z" fill="white"/>
<path d="M29.5762 13.5786C29.5762 14.02 29.934 14.3778 30.3754 14.3778H31.9741C32.4156 14.3778 32.7733 14.02 32.7733 13.5786C32.7733 13.1371 32.4155 12.7793 31.9741 12.7793H30.3754C29.934 12.7792 29.5762 13.1371 29.5762 13.5786V13.5786Z" fill="white"/>
<path d="M19.1859 28.7655C19.6274 28.7655 19.9851 28.4077 19.9851 27.9663C19.9851 27.5249 19.6273 27.167 19.1859 27.167H9.59419C9.1527 27.167 8.79492 27.5249 8.79492 27.9663C8.79492 28.4077 9.1528 28.7655 9.59419 28.7655H19.1859Z" fill="white"/>
<path d="M29.576 30.3643H17.5864C17.1449 30.3643 16.7871 30.7221 16.7871 31.1635C16.7871 31.605 17.145 31.9628 17.5864 31.9628H29.576C30.0175 31.9628 30.3753 31.6049 30.3753 31.1635C30.3753 30.7221 30.0174 30.3643 29.576 30.3643V30.3643Z" fill="white"/>
<path d="M14.3905 30.3643H11.9926C11.5511 30.3643 11.1934 30.7221 11.1934 31.1635C11.1934 31.605 11.5512 31.9628 11.9926 31.9628H14.3905C14.832 31.9628 15.1898 31.6049 15.1898 31.1635C15.1899 30.7221 14.832 30.3643 14.3905 30.3643V30.3643Z" fill="white"/>
<path d="M22.3833 28.7655H27.1791C27.6206 28.7655 27.9784 28.4077 27.9784 27.9663C27.9784 27.5249 27.6205 27.167 27.1791 27.167H22.3833C21.9418 27.167 21.584 27.5249 21.584 27.9663C21.584 28.4077 21.9418 28.7655 22.3833 28.7655V28.7655Z" fill="white"/>
<path d="M23.9809 33.5615H17.5864C17.1449 33.5615 16.7871 33.9194 16.7871 34.3608C16.7871 34.8022 17.145 35.1601 17.5864 35.1601H23.9809C24.4224 35.1601 24.7802 34.8022 24.7802 34.3608C24.7802 33.9194 24.4223 33.5615 23.9809 33.5615V33.5615Z" fill="white"/>
<path d="M31.9741 27.167H30.3754C29.934 27.167 29.5762 27.5249 29.5762 27.9663C29.5762 28.4076 29.934 28.7655 30.3754 28.7655H31.9741C32.4156 28.7655 32.7733 28.4076 32.7733 27.9663C32.7733 27.5249 32.4156 27.167 31.9741 27.167Z" fill="white"/>
</g>
<defs>
<clipPath id="clip0_1077_7776">
<rect width="48" height="48" fill="white"/>
</clipPath>
</defs>
</svg>

<svg width="48" height="48" viewBox="0 0 48 48" fill="none" xmlns="http://www.w3.org/2000/svg"><g clip-path="url(#clip0_1077_7776)" fill="#fff"><path d="M16.554 16.21a.8.8 0 00-1.13 0l-3.997 3.997a.8.8 0 000 1.13l3.997 3.997a.8.8 0 001.13-1.13l-3.431-3.432 3.431-3.431a.8.8 0 000-1.13zm8.461 9.124a.8.8 0 001.13 0l3.997-3.997a.8.8 0 000-1.13l-3.997-3.996a.8.8 0 00-1.13 1.13l3.432 3.431-3.432 3.432a.8.8 0 000 1.13zm-6.127.177a.8.8 0 001.04-.445l3.197-7.993a.8.8 0 10-1.486-.595l-3.197 7.993a.799.799 0 00.446 1.04z"/><path d="M20.784 41.554a20.674 20.674 0 0012.895-4.502l2.312 2.312c.044.773.37 1.504.917 2.053l5.595 5.595a3.197 3.197 0 104.52-4.521l-5.594-5.595a3.144 3.144 0 00-2.02-.884l-2.345-2.345a20.77 20.77 0 10-16.28 7.887zm25.11 2.067a1.599 1.599 0 010 2.26 1.636 1.636 0 01-2.26 0l-5.596-5.595a1.598 1.598 0 112.26-2.26l5.596 5.595zm-8.339-7.202a2.99 2.99 0 00-.647.48 3.132 3.132 0 00-.48.64l-1.527-1.529c.388-.36.763-.734 1.123-1.124l1.531 1.533zM20.785 1.59c10.594 0 19.183 8.588 19.183 19.183s-8.59 19.184-19.184 19.184c-10.595 0-19.183-8.59-19.183-19.184.012-10.59 8.594-19.17 19.183-19.183z"/><path d="M20.784 38.357c9.712 0 17.585-7.873 17.585-17.585 0-9.711-7.873-17.584-17.585-17.584S3.199 11.06 3.199 20.771c.011 9.708 7.878 17.574 17.585 17.585zm0-33.57c8.829 0 15.986 7.156 15.986 15.985 0 8.83-7.157 15.986-15.986 15.986S4.798 29.601 4.798 20.772c.01-8.824 7.161-15.976 15.986-15.986z"/><path d="M9.594 14.378h6.395a.8.8 0 100-1.599H9.594a.8.8 0 100 1.599zm2.399-3.198h17.584a.8.8 0 100-1.598H11.993a.8.8 0 100 1.599zm15.186 1.6h-7.993a.8.8 0 100 1.598h7.993a.8.8 0 100-1.599zm-9.593-4.797h6.395a.8.8 0 100-1.598h-6.395a.8.8 0 100 1.598zm11.99 5.596a.8.8 0 00.8.799h1.598a.8.8 0 100-1.599h-1.599a.8.8 0 00-.799.8zm-10.39 15.186a.8.8 0 100-1.598H9.594a.8.8 0 100 1.598h9.592zm10.39 1.599h-11.99a.8.8 0 100 1.599h11.99a.8.8 0 100-1.599zm-15.186 0h-2.397a.8.8 0 100 1.599h2.397a.8.8 0 100-1.599zm7.993-1.599h4.796a.8.8 0 100-1.598h-4.796a.8.8 0 100 1.598zm1.597 4.797h-6.394a.8.8 0 100 1.598h6.395a.8.8 0 100-1.598zm7.994-6.395h-1.599a.8.8 0 000 1.598h1.6a.8.8 0 100-1.598z"/></g><defs><clipPath id="clip0_1077_7776"><path fill="#fff" d="M0 0h48v48H0z"/></clipPath></defs></svg>
